whistle-outline.svg

<svg fill="currentColor" viewBox="0 0 24 24"><path d="M3.76 3.7 2.14 4.88 4.43 8a8.2 8.2 0 0 1 1.92-.72M11 9v2h7v.29l-5 1.42v2.79A4.5 4.5 0 1 1 8.5 11H9V9h-.5a6.5 6.5 0 1 0 6.5 6.5v-1.59L22 12V9m-5.76-5.3L13.85 7h2.47l1.54-2.12M9 2v5h2V2Z"/></svg>

<svg  viewBox="0 0 24 24" fill="currentColor"><path  d="M3.76 3.7L2.14 4.88L4.43 8A8.23 8.23 0 0 1 6.35 7.28M11 9V11H18V11.29L13 12.71V15.5A4.5 4.5 0 1 1 8.5 11H9V9H8.5A6.5 6.5 0 1 0 15 15.5V13.91L22 12V9M16.24 3.7L13.85 7H16.32L17.86 4.88M9 2V7H11V2Z"/></svg>
